img/1c-bitrix.svg

<svg xmlns="http://www.w3.org/2000/svg" width="344" height="67" viewBox="0 0 344 67">
  <g fill="none" fill-rule="evenodd">
    <path fill="#231F20" d="M134.9501,31.543 C132.2141,31.543 129.9931,33.762 129.9931,36.496 C129.9931,39.236 132.2141,41.453 134.9501,41.453 C137.6881,41.453 139.9061,39.236 139.9061,36.496 C139.9061,33.762 137.6881,31.543 134.9501,31.543 Z M336.6371,27.906 C339.8871,27.906 342.2641,29.725 343.8221,31.543 L343.8221,22.76 C341.2691,21.029 338.1931,20.336 335.5181,20.336 C327.3021,20.336 320.1631,26.219 320.1631,36.34 C320.1631,46.031 326.6511,52.348 335.6461,52.348 C338.2411,52.348 341.0951,51.955 343.8221,50.098 L343.8221,41.484 C342.2641,43.088 339.8021,44.777 336.6371,44.777 C331.7961,44.777 328.8961,41.188 328.8961,36.6 C328.8961,31.625 331.9681,27.906 336.6371,27.906 Z M321.0921,21.203 L311.1431,21.203 L302.0141,33.918 L302.0141,21.203 L293.5381,21.203 L293.5411,51.482 L302.0141,51.482 L302.0141,38.459 L310.7921,51.482 L321.3961,51.482 L309.5851,35.865 L321.0921,21.203 Z M268.5041,39.371 L268.5041,21.203 L260.3291,21.203 L260.3291,51.482 L268.6341,51.482 L280.3571,33.313 L280.3571,51.482 L288.5321,51.482 L288.5321,21.203 L280.2251,21.203 L268.5041,39.371 Z M243.9381,34.826 L241.5201,34.826 L241.5201,27.865 L243.9381,27.865 C247.5721,27.865 248.0891,29.809 248.0891,31.324 C248.0891,32.621 247.7011,34.826 243.9381,34.826 Z M245.7961,21.203 L233.0381,21.203 L233.0381,51.482 L241.5201,51.482 L241.5201,41.484 L245.7961,41.484 C254.3631,41.484 256.8291,35.522 256.8291,31.324 C256.8291,27.17 254.4061,21.203 245.7961,21.203 Z M207.7801,28.467 L214.4371,28.467 L214.4371,51.482 L222.9181,51.482 L222.9181,28.467 L229.5771,28.467 L229.5771,21.203 L207.7801,21.203 L207.7801,28.467 Z M184.2891,39.371 L184.2891,21.203 L176.1161,21.203 L176.1161,51.482 L184.4231,51.482 L196.1401,33.313 L196.1401,51.482 L204.3171,51.482 L204.3171,21.203 L196.0141,21.203 L184.2891,39.371 Z M159.0301,45.422 L155.3981,45.422 L155.3981,39.066 L159.0301,39.066 C161.7131,39.066 163.2711,39.846 163.2711,42.227 C163.2711,44.647 161.6711,45.422 159.0301,45.422 Z M159.8541,33.01 L155.3981,33.01 L155.3981,28.467 L169.2821,28.467 L169.2821,21.203 L146.9211,21.203 L146.9201,51.4820255 L159.8541,51.482 C162.0571,51.482 171.7481,51.566 171.7481,42.096 C171.7481,32.967 162.1461,33.01 159.8541,33.01 Z M99.4711,36.34 C99.4711,46.031 105.9591,52.348 114.9551,52.348 C117.5531,52.348 120.4071,51.955 123.1331,50.098 L123.1331,41.484 C121.5711,43.088 119.1061,44.777 115.9501,44.777 C111.1041,44.777 108.2081,41.188 108.2081,36.6 C108.2081,31.625 111.2781,27.906 115.9501,27.906 C119.1931,27.906 121.5711,29.725 123.1331,31.543 L123.1331,22.76 C120.5751,21.029 117.5071,20.336 114.8251,20.336 C106.6061,20.336 99.4711,26.219 99.4711,36.34 Z M81.7211,28.166 L86.3521,28.166 L86.3521,51.482 L94.1821,51.482 L94.1821,21.203 L81.7211,21.203 L81.7211,28.166 Z"/>
    <path fill="#D91935" d="M33.289,0.0001 C30.809,0.0001 28.397,0.2791 26.073,0.7951 L26.073,33.3141 C26.073,37.2991 29.322,40.5491 33.308,40.5491 C37.292,40.5491 40.54,37.2991 40.54,33.3161 C40.54,29.4881 37.549,26.3461 33.789,26.0961 L33.789,20.3051 C40.737,20.5571 46.328,26.3051 46.328,33.3161 C46.328,40.4861 40.479,46.3381 33.308,46.3381 C26.134,46.3381 20.286,40.4861 20.286,33.3141 L20.286,2.6351 C19.464,2.9841 18.661,3.3711 17.874,3.7871 L17.874,33.3141 C17.875,41.8131 24.809,48.7441 33.308,48.7441 C41.808,48.7441 48.739,41.8131 48.739,33.3161 C48.739,24.9771 42.069,18.1481 33.789,17.8911 L33.789,12.1021 C45.255,12.3611 54.524,21.7911 54.524,33.3161 C54.524,45.0041 44.993,54.5331 33.308,54.5331 C21.62,54.5331 12.086,45.0041 12.086,33.3141 L12.086,7.6271 C4.706,13.7301 0,22.9591 0,33.2891 C0,51.6741 14.904,66.5821 33.29,66.5821 C51.679,66.5821 66.579,51.6741 66.579,33.2891 C66.579,14.9041 51.679,0.0001 33.289,0.0001"/>
  </g>
</svg>

<svg xmlns="http://www.w3.org/2000/svg" width="344" height="67"><g fill="none" fill-rule="evenodd"><path fill="#231F20" d="M134.95 31.54a4.96 4.96 0 100 9.92 4.96 4.96 0 000-9.92zm201.69-3.63c3.25 0 5.62 1.82 7.18 3.63v-8.78a15.01 15.01 0 00-8.3-2.42c-8.22 0-15.36 5.88-15.36 16 0 9.7 6.5 16 15.49 16 2.6 0 5.45-.39 8.17-2.24v-8.62c-1.56 1.6-4.02 3.3-7.18 3.3-4.84 0-7.74-3.6-7.74-8.18 0-4.98 3.07-8.7 7.74-8.7zm-15.55-6.7h-9.95l-9.13 12.7v-12.7h-8.47v30.27h8.47V38.46l8.78 13.02h10.6l-11.8-15.61 11.5-14.67zM268.5 39.36V21.2h-8.17v30.28h8.3l11.73-18.17v18.17h8.17V21.2h-8.3L268.5 39.37zm-24.56-4.54h-2.42v-6.96h2.42c3.63 0 4.15 1.94 4.15 3.45 0 1.3-.39 3.5-4.15 3.5zm1.86-13.63h-12.76v30.28h8.48v-10h4.28c8.56 0 11.03-5.96 11.03-10.16 0-4.15-2.42-10.12-11.03-10.12zm-38.02 7.27h6.66v23.01h8.48V28.47h6.66V21.2h-21.8v7.27zm-23.5 10.9V21.2h-8.16v30.28h8.3l11.72-18.17v18.17h8.18V21.2h-8.3l-11.73 18.17zm-25.25 6.05h-3.63v-6.35h3.63c2.68 0 4.24.78 4.24 3.16 0 2.42-1.6 3.2-4.24 3.2zm.82-12.41h-4.45v-4.54h13.88V21.2h-22.36v30.28h12.93c2.2 0 11.9.09 11.9-9.38 0-9.13-9.6-9.09-11.9-9.09zm-60.38 3.33c0 9.7 6.49 16 15.49 16 2.6 0 5.45-.39 8.17-2.24v-8.62c-1.56 1.6-4.02 3.3-7.18 3.3-4.85 0-7.74-3.6-7.74-8.18 0-4.98 3.07-8.7 7.74-8.7 3.24 0 5.62 1.83 7.18 3.64v-8.78a15.02 15.02 0 00-8.3-2.42c-8.22 0-15.36 5.88-15.36 16zm-17.75-8.17h4.63v23.31h7.83V21.2H81.72v6.97z"/><path fill="#D91935" d="M33.29 0c-2.48 0-4.9.28-7.22.8V33.3a7.25 7.25 0 007.24 7.24 7.25 7.25 0 00.48-14.45v-5.8c6.95.26 12.54 6 12.54 13.02 0 7.17-5.85 13.02-13.02 13.02A13.05 13.05 0 0120.29 33.3V2.64c-.83.34-1.63.73-2.42 1.15V33.3c0 8.5 6.94 15.43 15.44 15.43s15.43-6.93 15.43-15.42c0-8.34-6.67-15.17-14.95-15.43V12.1a21.26 21.26 0 0120.73 21.22 21.26 21.26 0 01-21.21 21.21 21.26 21.26 0 01-21.22-21.22V7.63A33.3 33.3 0 1033.29 0"/></g></svg>
